scalable/actions/tap-create.svg

<svg xmlns="http://www.w3.org/2000/svg" width="24" height="24">
  <path fill="#333" d="M5.9746094 2.9765625c-.4641947.0006129-.8796896.2153931-1.1542969.5449219L3.4355469 5.2011719c-.29.35-.4609375.7903906-.4609375 1.2753906V18.976562c0 1.105001.895 2 2 2H18.974609c1.105 0 2-.894999 2-2V6.4765625c0-.485-.170078-.9253906-.455078-1.2753906l-1.384765-1.6796875c-.28-.33-.695157-.5449219-1.160157-.5449219H5.9746094zm-.0585938 1H17.916016l.933593 1H5.0996094l.8164062-1zm4.0605469 6.3144535h3.9999995v2h3.5l-5.5 5.5-5.4999995-5.5h3.5v-2z"/>
</svg>

<?xml version="1.0" encoding="UTF-8" standalone="no"?>
<svg
   xmlns:dc="http://purl.org/dc/elements/1.1/"
   xmlns:cc="http://creativecommons.org/ns#"
   xmlns:rdf="http://www.w3.org/1999/02/22-rdf-syntax-ns#"
   xmlns:svg="http://www.w3.org/2000/svg"
   xmlns="http://www.w3.org/2000/svg"
   xmlns:sodipodi="http://sodipodi.sourceforge.net/DTD/sodipodi-0.dtd"
   xmlns:inkscape="http://www.inkscape.org/namespaces/inkscape"
   viewBox="0 0 24 24"
   version="1.1"
   id="svg4"
   sodipodi:docname="tap-create.svg"
   inkscape:version="0.92.3 (2405546, 2018-03-11)"
   width="24"
   height="24"
   style="fill:#000000">
  <metadata
     id="metadata10">
    <rdf:RDF>
      <cc:Work
         rdf:about="">
        <dc:format>image/svg+xml</dc:format>
        <dc:type
           rdf:resource="http://purl.org/dc/dcmitype/StillImage" />
        <dc:title></dc:title>
      </cc:Work>
    </rdf:RDF>
  </metadata>
  <defs
     id="defs8" />
  <sodipodi:namedview
     pagecolor="#ffffff"
     bordercolor="#666666"
     borderopacity="1"
     objecttolerance="10"
     gridtolerance="10"
     guidetolerance="10"
     inkscape:pageopacity="0"
     inkscape:pageshadow="2"
     inkscape:window-width="1366"
     inkscape:window-height="717"
     id="namedview6"
     showgrid="false"
     inkscape:zoom="14.584077"
     inkscape:cx="-12.726243"
     inkscape:cy="12"
     inkscape:window-x="0"
     inkscape:window-y="25"
     inkscape:window-maximized="1"
     inkscape:current-layer="svg4"
     showguides="true"
     inkscape:guide-bbox="true" />
  <path
     style="fill:#333333;stroke-width:0.5"
     d="M 5.9746094 2.9765625 C 5.5104147 2.9771754 5.0949198 3.1919556 4.8203125 3.5214844 L 3.4355469 5.2011719 C 3.1455469 5.5511719 2.9746094 5.9915625 2.9746094 6.4765625 L 2.9746094 18.976562 C 2.9746094 20.081563 3.8696094 20.976562 4.9746094 20.976562 L 18.974609 20.976562 C 20.079609 20.976562 20.974609 20.081563 20.974609 18.976562 L 20.974609 6.4765625 C 20.974609 5.9915625 20.804531 5.5511719 20.519531 5.2011719 L 19.134766 3.5214844 C 18.854766 3.1914844 18.439609 2.9765625 17.974609 2.9765625 L 5.9765625 2.9765625 L 5.9746094 2.9765625 z M 5.9160156 3.9765625 L 17.916016 3.9765625 L 18.849609 4.9765625 L 5.0996094 4.9765625 L 5.9160156 3.9765625 z M 9.9765625 10.291016 L 13.976562 10.291016 L 13.976562 12.291016 L 17.476562 12.291016 L 11.976562 17.791016 L 6.4765625 12.291016 L 9.9765625 12.291016 L 9.9765625 10.291016 z "
     id="path816" />
</svg>
